svgs/sharp-regular/square-d.svg

<svg xmlns="http://www.w3.org/2000/svg" viewBox="0 0 448 512"><!--! Font Awesome Pro 6.6.0 by @fontawesome - https://fontawesome.com License - https://fontawesome.com/license (Commercial License) Copyright 2024 Fonticons, Inc. --><path d="M48 80l0 352 352 0 0-352L48 80zM0 32l48 0 352 0 48 0 0 48 0 352 0 48-48 0L48 480 0 480l0-48L0 80 0 32zm152 96l72 0c70.7 0 128 57.3 128 128s-57.3 128-128 128l-72 0-24 0 0-24 0-208 0-24 24 0zm24 208l48 0c44.2 0 80-35.8 80-80s-35.8-80-80-80l-48 0 0 160z"/></svg>

<svg xmlns="http://www.w3.org/2000/svg" viewBox="0 0 448 512"><!--! Font Awesome Pro 6.4.0 by @fontawesome - https://fontawesome.com License - https://fontawesome.com/license (Commercial License) Copyright 2023 Fonticons, Inc. --><path d="M48 80V432H400V80H48zM0 32H48 400h48V80 432v48H400 48 0V432 80 32zm152 96h72c70.7 0 128 57.3 128 128s-57.3 128-128 128H152 128V360 152 128h24zm24 208h48c44.2 0 80-35.8 80-80s-35.8-80-80-80H176V336z"/></svg>
